svgs/thin/dice-d12.svg

<svg xmlns="http://www.w3.org/2000/svg" viewBox="0 0 512 512"><!--! Font Awesome Pro 6.3.0 by @fontawesome - https://fontawesome.com License - https://fontawesome.com/license (Commercial License) Copyright 2023 Fonticons, Inc. --><path d="M505.3 178.5l-47.73-95.39c-5.25-10.53-18.09-23.38-28.62-28.62l-95.39-47.73C326.1 3.031 313.2 0 304.9 0H207.1C197.1 0 187.4 2.313 178.5 6.75L83.11 54.48C72.58 59.73 59.73 72.58 54.48 83.11l-47.73 95.39C3.031 185.9 0 198.8 0 207.1v97.77c0 9.969 2.313 19.75 6.75 28.62l47.73 95.4c5.25 10.53 18.09 23.38 28.62 28.62l95.4 47.73C185.9 508.1 198.8 512 207.1 512h97.75c9.969 0 19.75-2.312 28.62-6.75l95.4-47.73c10.53-5.25 23.38-18.09 28.62-28.62l47.73-95.38C508.1 326.1 512 313.2 512 304.9V207.1C512 197.2 509.7 187.4 505.3 178.5zM490.9 185.7c2.488 4.973 3.773 10.44 4.422 15.97l-112.8 124.1L264 251.6V149.6l176.8-63.14c.875 1.277 1.859 2.592 2.441 3.756L490.9 185.7zM90.25 68.78l95.41-47.72C192.3 17.75 199.7 16 207.1 16h97.78c5.816 0 16.23 2.459 21.44 5.061l95.43 47.73c2.207 1.1 4.676 2.906 7.168 4.955L256 135.5L83.07 73.74C85.56 71.69 88.04 69.88 90.25 68.78zM68.79 90.23c.5781-1.156 1.555-2.465 2.43-3.736L248 149.6v101.9l-118.6 74.13L16.52 201.5C17.38 195.1 19.17 189.4 21.06 185.7L68.79 90.23zM68.78 421.8l-47.71-95.41C17.75 319.7 16 312.3 16 304.9V224.7l105 115.5l50.76 143.8l-81.54-40.78C82.88 439.5 72.45 429.1 68.78 421.8zM207.1 496c-3.969 0-10.01-1.174-15.14-2.723L137.7 339.4L256 265.4l118.3 73.96l-54.3 153.8C315.1 494.9 310.1 496 304.9 496H207.1zM490.9 326.3l-47.73 95.43c-3.664 7.355-14.09 17.78-21.46 21.45l-81.52 40.77l50.76-143.8L496 224.7v80.2C496 310.7 493.5 321.1 490.9 326.3z"/></svg>

<svg xmlns="http://www.w3.org/2000/svg" viewBox="0 0 512 512"><!-- Font Awesome Pro 6.0.0-alpha2 by @fontawesome - https://fontawesome.com License - https://fontawesome.com/license (Commercial License) --><path d="M505.25 178.5L457.531 83.094C452.281 72.562 439.438 59.719 428.906 54.469L333.5 6.75C326.062 3.031 313.25 0 304.906 0H207.125C197.156 0 187.375 2.312 178.5 6.75L83.094 54.469C72.562 59.719 59.719 72.562 54.469 83.094L6.75 178.5C3.031 185.938 0 198.75 0 207.094V304.875C0 314.844 2.312 324.625 6.75 333.5L54.469 428.906C59.719 439.438 72.562 452.281 83.094 457.531L178.5 505.25C185.938 508.969 198.781 512 207.125 512H304.875C314.844 512 324.625 509.688 333.5 505.25L428.906 457.531C439.437 452.281 452.281 439.438 457.531 428.906L505.25 333.5C508.969 326.062 512 313.219 512 304.875V207.125C512 197.156 509.688 187.375 505.25 178.5ZM490.938 185.654C493.426 190.627 494.711 196.09 495.359 201.627L382.563 325.688L264 251.562V149.635L440.781 86.496C441.656 87.773 442.641 89.088 443.223 90.252L490.938 185.654ZM90.25 68.779L185.656 21.061C192.277 17.75 199.703 16 207.125 16H304.906C310.723 16 321.141 18.459 326.344 21.061L421.77 68.789C423.977 69.889 426.445 71.695 428.938 73.744L256 135.5L83.066 73.744C85.562 71.691 88.039 69.883 90.25 68.779ZM68.789 90.232C69.367 89.076 70.344 87.768 71.219 86.496L248 149.635V251.562L129.438 325.687L16.523 201.502C17.375 195.973 19.168 189.443 21.059 185.658L68.789 90.232ZM68.777 421.75L21.062 326.344C17.75 319.723 16 312.299 16 304.875V224.672L121.008 340.178L171.766 483.99L90.23 443.211C82.875 439.545 72.453 429.123 68.777 421.75ZM207.125 496C203.156 496 197.117 494.826 191.984 493.277L137.668 339.395L256 265.438L374.332 339.395L320.035 493.221C315.129 494.859 310.055 496 304.875 496H207.125ZM490.941 326.342L443.211 421.768C439.547 429.123 429.125 439.545 421.75 443.221L340.234 483.99L390.992 340.178L496 224.672V304.875C496 310.707 493.539 321.143 490.941 326.342Z "></path></svg>
